packages/ui-icons/src/Service-logos/24/CityMobil.svg

<svg viewBox="0 0 32 32" fill="none" xmlns="http://www.w3.org/2000/svg">
<path d="M28 16C28 22.6274 22.6274 28 16 28C9.37258 28 4 22.6274 4 16C4 9.37258 9.37258 4 16 4C22.6274 4 28 9.37258 28 16Z" fill="#6E00BE"/>
<path d="M12.8963 14.7159L12.1316 14.4286C11.8916 14.8036 11.5008 14.8864 11.0263 14.8864C10.2448 14.8864 9.84848 14.5844 9.84848 14.0195V13.9805C9.84848 13.4156 10.2448 13.1136 11.0263 13.1136C11.5008 13.1136 11.8916 13.1916 12.1316 13.5714L12.8963 13.2841C12.5335 12.6315 11.7966 12.5 11.0263 12.5C9.7815 12.5 9 13.0601 9 13.9464V14.0536C9 14.9448 9.7815 15.5 11.0263 15.5C11.7966 15.4951 12.5335 15.3685 12.8963 14.7159ZM20.181 12.5633H19.3716V15.4367H20.2703L22.185 13.4351H22.2018L22.1906 15.4367H23V12.5633H22.1013L20.1866 14.5649H20.1698L20.181 12.5633ZM14.0686 12.5633H13.3373V15.4367H14.197L15.2855 13.4935H15.3022L15.252 15.4367H15.9833V12.5633H15.1236L14.0407 14.5065H14.0239L14.0686 12.5633ZM17.3006 13.1282V15.4318H18.0598V13.1282H18.9418V12.5633H16.4187V13.1282H17.3006Z" fill="white"/>
<path d="M20.015 16.5585H19.295V19.4366H20.1413L21.2132 17.4902H21.2295L21.1802 19.4366H21.9001V16.5585H21.0537L19.982 18.5049H19.9655L20.015 16.5585ZM12.1444 18.0122V17.978C12.1444 17.3634 12.6061 17.1195 13.3591 17.1195C14.1121 17.1195 14.5793 17.3634 14.5793 17.978V18.0122C14.5793 18.6268 14.1121 18.8756 13.3591 18.8756C12.6006 18.8707 12.1444 18.622 12.1444 18.0122ZM11.2925 18.0512C11.2925 18.9293 12.1114 19.5 13.3591 19.5C14.6067 19.5 15.4312 18.9341 15.4312 18.0512V17.939C15.4312 17.061 14.6067 16.5 13.3591 16.5C12.1114 16.5 11.2925 17.061 11.2925 17.939V18.0512ZM25 16.5585H22.939L22.9115 18.1537C22.9004 18.6415 22.8181 18.8122 22.5212 18.8122H22.3344V19.4366H22.5432C23.3401 19.4366 23.571 19.1537 23.593 18.1537L23.6095 17.1098H24.2799V19.4366H24.9944V16.5585H25ZM7 19.4366H7.74198L7.70901 17.5293H7.7255L8.53344 19.4366H9.27543L10.0724 17.5293H10.0889L10.0559 19.4366H10.7979V16.5585H9.77557L8.91268 18.6854H8.89619L8.0223 16.5585H7V19.4366ZM17.7066 18.8805H16.6843V18.339H17.7066C17.9484 18.339 18.0529 18.4317 18.0529 18.6122C18.0529 18.7927 17.9484 18.8805 17.7066 18.8805ZM15.9202 16.5585V19.4366H17.679C18.3221 19.4366 18.8004 19.2268 18.8004 18.6122C18.8004 17.9976 18.3277 17.7927 17.679 17.7927H16.6898V17.1244H18.6904V16.5585H15.9202Z" fill="#FA6400"/>
</svg>

<svg viewBox="0 0 32 32" fill="none" xmlns="http://www.w3.org/2000/svg"><path d="M28 16c0 6.627-5.373 12-12 12S4 22.627 4 16 9.373 4 16 4s12 5.373 12 12Z" fill="#6E00BE"/><path d="m12.896 14.716-.764-.287c-.24.375-.631.457-1.106.457-.781 0-1.178-.302-1.178-.866v-.04c0-.564.397-.866 1.178-.866.475 0 .866.078 1.106.457l.764-.287c-.363-.652-1.1-.784-1.87-.784C9.781 12.5 9 13.06 9 13.946v.108c0 .89.781 1.446 2.026 1.446.77-.005 1.508-.132 1.87-.784Zm7.285-2.153h-.81v2.874h.9l1.914-2.002h.017l-.011 2.002H23v-2.874h-.899l-1.914 2.002h-.017l.011-2.002Zm-6.112 0h-.732v2.874h.86l1.089-1.944h.016l-.05 1.944h.731v-2.874h-.86l-1.082 1.944h-.017l.045-1.944Zm3.232.565v2.304h.759v-2.304h.882v-.565h-2.523v.565h.882Z" fill="#fff"/><path d="M20.015 16.558h-.72v2.879h.846l1.072-1.947h.017l-.05 1.947h.72v-2.879h-.846l-1.072 1.947h-.017l.05-1.947Zm-7.87 1.454v-.034c0-.615.461-.859 1.214-.859.753 0 1.22.244 1.22.859v.034c0 .615-.467.864-1.22.864-.758-.005-1.215-.254-1.215-.864Zm-.852.04c0 .877.818 1.448 2.066 1.448 1.248 0 2.072-.566 2.072-1.449v-.112c0-.878-.824-1.439-2.072-1.439-1.248 0-2.066.561-2.066 1.439v.112ZM25 16.557h-2.061l-.027 1.596c-.012.488-.094.658-.39.658h-.188v.625h.21c.796 0 1.027-.283 1.049-1.283l.017-1.044h.67v2.327h.714v-2.879H25ZM7 19.438h.742l-.033-1.908h.017l.807 1.908h.742l.797-1.908h.017l-.033 1.908h.742v-2.879H9.776l-.863 2.127h-.017l-.874-2.127H7v2.879Zm10.707-.556h-1.023v-.542h1.023c.241 0 .346.093.346.273 0 .18-.105.269-.346.269Zm-1.787-2.323v2.879h1.759c.643 0 1.121-.21 1.121-.825 0-.614-.472-.82-1.121-.82h-.99v-.668h2.001v-.566h-2.77Z" fill="#FA6400"/></svg>
